packages/icons/svg/plus-circle.svg

<svg width="24" height="24" viewBox="0 0 24 24" fill="none" xmlns="http://www.w3.org/2000/svg">
<path fill-rule="evenodd" clip-rule="evenodd" d="M2 12C2 6.47728 6.47728 2 12 2C17.5227 2 22 6.47728 22 12C22 17.5227 17.5227 22 12 22C6.47728 22 2 17.5227 2 12ZM12 0C5.37272 0 0 5.37272 0 12C0 18.6273 5.37272 24 12 24C18.6273 24 24 18.6273 24 12C24 5.37272 18.6273 0 12 0ZM12.0007 6.99994C12.553 6.99994 13.0007 7.44765 13.0007 7.99994V10.9999H16.0007C16.553 10.9999 17.0007 11.4477 17.0007 11.9999C17.0007 12.5522 16.553 12.9999 16.0007 12.9999H13.0007V15.9999C13.0007 16.5522 12.553 16.9999 12.0007 16.9999C11.4484 16.9999 11.0007 16.5522 11.0007 15.9999V12.9999H8.0007C7.44842 12.9999 7.0007 12.5522 7.0007 11.9999C7.0007 11.4477 7.44842 10.9999 8.0007 10.9999H11.0007V7.99994C11.0007 7.44765 11.4484 6.99994 12.0007 6.99994Z" fill="black"/>
</svg>

<svg xmlns="http://www.w3.org/2000/svg" viewBox="0 0 24 24">
    <path fill-rule="evenodd" d="M2 12C2 6.477 6.477 2 12 2s10 4.477 10 10-4.477 10-10 10S2 17.523 2 12zM12 0C5.373 0 0 5.373 0 12s5.373 12 12 12 12-5.373 12-12S18.627 0 12 0zm0 7a1 1 0 0 1 1 1v3h3a1 1 0 0 1 0 2h-3v3a1 1 0 1 1-2 0v-3H8a1 1 0 1 1 0-2h3V8a1 1 0 0 1 1-1z" clip-rule="evenodd"/>
</svg>
